public/BrandLogo/hooli-logo.svg

<!DOCTYPE svg PUBLIC "-//W3C//DTD SVG 1.1//EN" "http://www.w3.org/Graphics/SVG/1.1/DTD/svg11.dtd">
<!-- Uploaded to: SVG Repo, www.svgrepo.com, Transformed by: SVG Repo Mixer Tools -->
<svg fill="#737373" width="205px" height="205px" viewBox="0 0 32 32" xmlns="http://www.w3.org/2000/svg" stroke="#737373" stroke-width="0.00032">
<g id="SVGRepo_bgCarrier" stroke-width="0"/>
<g id="SVGRepo_tracerCarrier" stroke-linecap="round" stroke-linejoin="round" stroke="#CCCCCC" stroke-width="0.96"/>
<g id="SVGRepo_iconCarrier">
<path d="M 1.734375 10.857422 C 0.90975 10.882422 0.37351563 11.159688 0.16601562 11.617188 C 0.16601562 11.617188 -1.0791406 13.257203 3.2558594 17.158203 L 3.2558594 20.84375 L 6.1503906 20.84375 L 6.1503906 19.412109 C 5.8253906 19.202109 5.5016406 18.977422 5.1816406 18.732422 C 4.4416406 18.172422 3.8117188 17.652109 3.2617188 17.162109 L 3.2617188 15.613281 C 3.9167188 16.348281 4.7866406 17.183906 5.9316406 18.128906 L 6.15625 18.308594 L 6.15625 16.818359 C 6.15625 16.473359 6.2403125 15.908203 6.6953125 15.908203 C 7.1503125 15.908203 7.2265625 16.253203 7.2265625 16.658203 L 7.2265625 19.09375 C 8.1265625 19.70375 9.0913281 20.197266 10.111328 20.572266 L 10.111328 15.876953 C 10.111328 14.941953 9.4400781 14.007813 8.0800781 14.007812 C 7.2900781 14.002812 6.55625 14.416562 6.15625 15.101562 L 6.15625 12.386719 C 8.25125 13.431719 10.352344 14.712734 11.152344 15.302734 C 10.642344 16.032734 10.6875 16.706328 10.6875 17.486328 C 10.6875 18.421328 10.617344 19.201328 11.527344 20.111328 C 12.437344 21.021328 14.046875 20.966797 14.046875 20.966797 C 14.046875 20.966797 15.661406 21.021328 16.566406 20.111328 C 17.476406 19.201328 17.402344 18.421328 17.402344 17.486328 C 17.403344 16.561328 17.478359 15.776094 16.568359 14.871094 C 15.658359 13.961094 14.048828 14.017578 14.048828 14.017578 C 14.048828 14.017578 12.437344 13.961094 11.527344 14.871094 C 11.432344 14.966094 11.343672 15.066875 11.263672 15.171875 C 9.3536719 13.691875 7.63725 12.847188 6.15625 12.117188 L 6.15625 11.082031 L 5.03125 11.611328 C 3.67125 11.058828 2.559 10.832422 1.734375 10.857422 z M 28.314453 11.076172 L 25.419922 12.441406 L 25.419922 20.84375 L 28.314453 20.84375 L 28.314453 11.076172 z M 2.4570312 11.300781 C 3.0916016 11.255811 3.8761719 11.440234 4.7167969 11.755859 L 3.2558594 12.441406 L 3.2558594 15.607422 C 0.82085937 12.882422 1.3110937 11.805391 1.4960938 11.650391 C 1.7492188 11.436641 2.0762891 11.327764 2.4570312 11.300781 z M 30.554688 12.146484 C 29.759687 12.146484 29.109375 12.576094 29.109375 13.371094 C 29.109375 14.166094 29.754688 14.816406 30.554688 14.816406 C 31.349688 14.816406 32 14.171094 32 13.371094 C 32 12.571094 31.354688 12.146484 30.554688 12.146484 z M 21.349609 14.017578 C 21.349609 14.017578 19.733125 13.961094 18.828125 14.871094 C 17.918125 15.781094 17.988281 16.566953 17.988281 17.501953 C 17.988281 18.436953 17.918125 19.216953 18.828125 20.126953 C 19.738125 21.036953 21.349609 20.982422 21.349609 20.982422 C 21.349609 20.982422 22.964141 21.036953 23.869141 20.126953 C 24.779141 19.216953 24.708984 18.436953 24.708984 17.501953 C 24.703984 16.561953 24.774141 15.776094 23.869141 14.871094 C 22.959141 13.961094 21.349609 14.017578 21.349609 14.017578 z M 29.105469 15.316406 L 29.105469 20.84375 L 32 20.84375 L 32 15.316406 L 29.105469 15.316406 z M 14.048828 15.902344 C 14.218828 15.902344 14.582031 16.007266 14.582031 16.447266 L 14.582031 18.46875 C 14.582031 18.64875 14.493828 19.09375 14.048828 19.09375 C 13.603828 19.09375 13.513672 18.64875 13.513672 18.46875 L 13.513672 16.447266 C 13.513672 16.012266 13.878828 15.902344 14.048828 15.902344 z M 21.34375 15.902344 C 21.51375 15.902344 21.878906 16.007266 21.878906 16.447266 L 21.878906 18.46875 C 21.878906 18.64875 21.78875 19.09375 21.34375 19.09375 C 20.89875 19.09375 20.808594 18.64875 20.808594 18.46875 L 20.808594 16.447266 C 20.808594 16.012266 21.17375 15.902344 21.34375 15.902344 z M 7.2226562 20.042969 L 7.2226562 20.84375 L 9.1367188 20.882812 C 8.4767187 20.652812 7.8376562 20.372969 7.2226562 20.042969 z M 9.1367188 20.882812 C 10.961719 21.507812 12.632047 21.592188 13.873047 21.242188 C 12.877047 21.252188 11.582422 21.113125 10.107422 20.578125 L 10.107422 20.84375 L 9.1367188 20.882812 z"/>
</g>
</svg>

<svg xmlns="http://www.w3.org/2000/svg" width="205" height="205" fill="#737373" stroke="#737373" stroke-width="0" viewBox="0 0 32 32">
  <path stroke="none" d="M1.734 10.857c-.824.025-1.36.303-1.568.76 0 0-1.245 1.64 3.09 5.541v3.686H6.15v-1.432c-.325-.21-.648-.435-.968-.68a30.93 30.93 0 0 1-1.92-1.57v-1.549c.655.735 1.525 1.57 2.67 2.516l.224.18v-1.49c0-.346.084-.91.54-.91.454 0 .53.344.53.75v2.435c.9.61 1.865 1.103 2.885 1.478v-4.695c0-.935-.67-1.87-2.03-1.87a2.208 2.208 0 0 0-1.925 1.095v-2.715c2.095 1.045 4.196 2.326 4.996 2.916-.51.73-.464 1.403-.464 2.183 0 .935-.07 1.715.84 2.625.91.91 2.519.856 2.519.856s1.614.054 2.52-.856c.91-.91.835-1.69.835-2.625.001-.925.076-1.71-.834-2.615-.91-.91-2.52-.853-2.52-.853s-1.61-.057-2.52.853a2.987 2.987 0 0 0-.264.3c-1.91-1.48-3.627-2.324-5.108-3.054v-1.035l-1.125.53c-1.36-.553-2.472-.78-3.297-.755zm26.58.22L25.42 12.44v8.403h2.894v-9.768zM2.457 11.3c.635-.045 1.42.14 2.26.455l-1.461.685v3.166C.82 12.882 1.31 11.805 1.496 11.65c.253-.213.58-.322.961-.35zm28.098.845c-.795 0-1.446.43-1.446 1.225a1.446 1.446 0 0 0 2.891 0c0-.8-.645-1.225-1.445-1.225zm-9.205 1.872s-1.617-.057-2.522.853c-.91.91-.84 1.696-.84 2.631 0 .935-.07 1.715.84 2.625.91.91 2.522.855 2.522.855s1.614.055 2.52-.855c.91-.91.839-1.69.839-2.625-.005-.94.065-1.726-.84-2.63-.91-.91-2.52-.854-2.52-.854zm7.755 1.298v5.528H32v-5.528h-2.895zm-15.056.586c.17 0 .533.105.533.545v2.022c0 .18-.088.625-.533.625-.445 0-.535-.445-.535-.625v-2.022c0-.435.365-.545.535-.545zm7.295 0c.17 0 .535.105.535.545v2.022c0 .18-.09.625-.535.625-.445 0-.535-.445-.535-.625v-2.022c0-.435.365-.545.535-.545zM7.223 20.043v.8l1.914.04c-.66-.23-1.3-.51-1.914-.84zm1.914.84c1.825.625 3.495.71 4.736.36a10.7 10.7 0 0 1-3.766-.665v.266l-.97.039z"/>
</svg>
